public/svgs/vision/vision-decoration-logo-4.svg

<svg width="1em" height="1em" viewBox="0 0 48 48" fill="current" xmlns="http://www.w3.org/2000/svg">
    <g id="Group">
        <path id="Union" fill-rule="evenodd" clip-rule="evenodd" d="M34.2685 30.0783C35.5065 30.1517 36.5922 29.7387 37.5967 29.1356C38.8566 28.3788 39.8446 27.3944 40.4769 26.137C40.4871 26.1165 40.5042 26.0986 40.5317 26.0698C40.5485 26.0523 40.5691 26.0307 40.5944 26.0021C40.3117 27.5374 39.7497 28.9148 38.9323 30.2107C37.0784 33.1508 34.2842 34.902 30.6938 35.6923C29.9451 35.8572 29.2254 36.1558 28.5176 36.4493L28.5176 36.4493L28.5175 36.4494L28.3831 36.5051C27.9399 36.6885 27.6026 37.0256 27.3226 37.446C28.3551 37.7681 29.2714 37.6257 30.1277 37.0834C30.151 37.107 30.1742 37.1313 30.1974 37.1549C30.0938 37.2363 29.9927 37.3212 29.8917 37.406L29.8916 37.4061L29.8915 37.4062L29.8914 37.4062C29.6681 37.5937 29.4448 37.7812 29.1943 37.931C28.1301 38.5682 26.9142 38.862 25.6993 39.1556L25.6993 39.1556L25.6769 39.161C24.8323 39.365 23.989 39.5789 23.16 39.8308C22.5639 40.0117 22.0825 40.3562 21.78 40.909C22.3843 41.3705 22.9647 41.2411 23.5553 40.8804C23.2003 41.5471 22.583 41.8829 21.8353 42.0141C21.4392 42.0837 21.0206 42.0819 20.6143 42.0663C20.0681 42.0452 19.7703 42.246 19.7055 42.7491C19.6953 42.83 19.6979 42.9125 19.7007 43.0008C19.702 43.0435 19.7034 43.0876 19.7034 43.1334C20.1609 43.2261 20.4375 42.9972 20.7215 42.6577C20.6396 43.2534 20.4061 43.6931 19.9076 43.9953C19.7942 44.0637 19.6775 44.1308 19.5546 44.1837C18.3179 44.7129 18.0837 45.7489 18.3746 46.6811C18.4708 46.9904 18.6279 47.2843 18.7884 47.5843C18.8615 47.7209 18.9352 47.8588 19.0042 48C17.816 47.6288 16.7754 47.0386 15.9102 46.2041C14.9966 45.3229 14.4715 44.2894 14.4045 43.0575C14.3458 41.9705 13.8917 40.9886 13.3072 40.0484C13.2072 39.8876 13.1069 39.7268 13.0065 39.566C12.4217 38.6291 11.8362 37.691 11.3099 36.7271C10.6639 35.5437 10.4618 34.2378 10.2965 32.9407C10.2723 32.7506 10.2477 32.5605 10.2231 32.3703C10.0531 31.0583 9.88267 29.7432 9.84927 28.4266C9.82742 27.5679 9.62257 26.8646 9.14663 26.1214C7.40469 23.4008 6.82154 20.4415 7.23534 17.3192C7.2882 16.9213 7.35326 16.5244 7.41831 16.1276C7.52804 15.4582 7.63773 14.7891 7.68875 14.116C7.83283 12.2218 7.28451 10.485 6.03968 8.94532C6.01646 8.91671 5.99871 8.885 6.00007 8.84085C6.60439 9.30412 7.08785 9.85446 7.47912 10.4757C8.47471 12.0558 8.91924 13.7796 9.04215 15.578C9.05117 15.7095 9.05999 15.8411 9.0688 15.9727L9.06881 15.9727L9.06881 15.9728C9.16955 17.4755 9.27023 18.9772 9.66013 20.4489C9.88751 21.3077 10.1839 22.1441 10.694 22.9046C10.7154 22.9369 10.7397 22.968 10.7727 23.0102C10.7912 23.0338 10.8124 23.0609 10.8374 23.0937C11.3631 21.9812 11.4164 20.8562 11.3638 19.7158L11.4464 19.7046C11.4666 19.8049 11.4886 19.9051 11.5105 20.0052L11.5105 20.0053L11.5105 20.0054C11.56 20.2311 11.6095 20.4568 11.6383 20.6846C11.7715 21.7405 11.5557 22.7709 11.3249 23.797C11.0046 25.2204 10.7233 26.6482 10.8189 28.1107C10.8892 29.1853 11.0709 30.2449 11.4396 31.2834C11.4396 31.2554 11.4398 31.2274 11.4401 31.1994V31.1994V31.1994C11.4405 31.1435 11.441 31.0877 11.4396 31.0322C11.3563 27.6493 12.1477 24.4549 13.8822 21.4538C14.9317 19.6374 15.9075 17.7905 16.436 15.777C16.955 13.8001 16.9372 11.8351 16.3145 9.87871C16.2994 9.83208 16.2967 9.78295 16.309 9.73009C16.7453 10.4776 17.0041 11.2779 17.1728 12.1043C17.6242 14.3193 17.349 16.502 16.7884 18.6667C16.5603 19.5464 16.2901 20.4169 16.02 21.2871L15.986 21.3966C15.9259 21.5906 15.801 21.7735 15.6767 21.9445C14.5111 23.5476 13.6951 25.2726 13.4513 27.1991C13.4397 27.2918 13.4294 27.3844 13.4233 27.4777C13.4192 27.5393 13.4226 27.6008 13.4656 27.6748C13.4949 27.5954 13.5237 27.5158 13.5524 27.4363L13.5525 27.4361L13.5526 27.436L13.5526 27.4359L13.5526 27.4359C13.6051 27.2907 13.6577 27.1455 13.7128 27.0014C14.2168 25.6861 15.0375 24.5357 15.9 23.3971C16.2318 22.9591 16.565 22.5217 16.8982 22.0843C18.3223 20.2148 19.7469 18.3447 21.0712 16.4181C22.6601 14.1054 23.5369 11.5471 23.4877 8.78612C23.4751 8.08187 23.3987 7.3788 23.3211 6.66468L23.3211 6.66462L23.3211 6.66456C23.2854 6.3364 23.2495 6.0059 23.2194 5.6719C24.5571 9.19903 24.1508 12.7268 23.4488 16.3093C24.4676 15.471 24.8664 14.4275 24.8978 13.233C25.1436 14.2491 25.1013 15.2266 24.4205 16.1028C23.5458 17.229 22.6772 18.3558 22.0565 19.6231C21.5812 20.5932 21.1954 21.585 21.1033 22.654C21.0404 23.3772 21.1442 24.0793 21.4474 24.8075C22.0749 24.2275 22.2271 23.5078 22.3815 22.7781L22.389 22.7423C22.4612 23.153 22.5593 23.5624 22.6574 23.972C23.0052 25.4237 23.3537 26.8779 22.5495 28.4018C23.205 28.0728 23.6182 26.905 23.8237 25.9212C23.835 25.9832 23.8473 26.0451 23.8597 26.1069C23.8871 26.244 23.9145 26.381 23.9295 26.5194C24.1979 28.9938 23.5922 31.3052 22.2559 33.4475C21.7212 34.3049 21.0602 35.1018 20.4054 35.8913L20.3781 35.9243C19.8646 36.543 19.2917 37.1238 18.7099 37.6916C17.4698 38.9023 16.97 40.3388 17.0765 41.9668C17.1079 42.4475 17.194 42.9251 17.3025 43.407C17.3695 41.8319 18.1677 40.7561 19.7997 40.2151C19.7523 40.2693 19.7039 40.323 19.6554 40.3768L19.6554 40.3768C19.3106 40.7594 18.9609 41.1475 18.925 41.7641C19.7096 40.6385 20.6929 39.8003 21.767 39.0485C22.0994 38.816 22.4504 38.605 22.8015 38.394C22.9538 38.3024 23.1061 38.2109 23.2569 38.1176C25.0617 36.9995 26.4438 35.5779 27.2229 33.6875C27.5759 32.8306 28.1844 32.0974 28.8126 31.3804C29.2306 30.9037 29.6157 30.4026 30.0005 29.9019L30.0006 29.9018L30.0006 29.9017C30.1237 29.7416 30.2467 29.5815 30.3708 29.4222C30.4528 29.3178 30.4958 29.1878 30.5333 29.0528C29.5651 30.1243 28.4124 30.9053 26.7818 31.1479C26.8044 31.021 26.8231 30.8986 26.8412 30.7798C26.8789 30.533 26.9142 30.3016 26.9778 30.077C27.214 29.2431 27.7323 28.5603 28.4971 28.0691C29.8648 27.1898 31.027 26.114 32.1565 25.004C33.0783 24.0979 33.7127 23.0445 34.0432 21.8431C34.0698 21.7449 34.091 21.646 34.0903 21.5316C32.8584 23.6316 31.1069 25.1302 28.3865 25.6998C28.4347 25.6081 28.4754 25.5235 28.5132 25.4448L28.5132 25.4448C28.589 25.2871 28.6532 25.1535 28.7429 25.0357C28.9819 24.7217 29.2271 24.4039 29.5193 24.1315C31.0168 22.7361 31.8492 21.0347 32.3108 19.1629C32.3893 18.8458 32.5471 18.5977 32.7587 18.3464C34.149 16.6942 35.0053 14.823 35.4007 12.7815C36.2699 8.29362 34.9247 4.35979 31.7563 0.894843C31.6778 0.808935 31.5972 0.724626 31.5166 0.640152L31.5165 0.64014L31.5165 0.640116C31.3215 0.435988 31.1256 0.230904 30.9547 0C31.0778 0.0980488 31.2025 0.194681 31.3272 0.291331L31.3272 0.291342C31.5988 0.501791 31.8705 0.712324 32.1264 0.93775C34.386 2.92829 36.0555 5.28573 37.2293 7.92673C38.0863 9.85446 38.9412 11.7921 39.411 13.8374C40.1826 17.1979 39.4179 20.2723 37.2286 23.0595C37.1631 23.1434 37.0975 23.228 37.0334 23.3132C37.031 23.3164 37.0316 23.3216 37.0331 23.336L37.0331 23.3361C37.0343 23.3468 37.036 23.3627 37.0375 23.3865C38.8012 22.3593 40.059 20.9775 40.8914 19.2593C40.9276 19.2711 40.9638 19.2823 41 19.2935C40.9385 19.5157 40.8814 19.7391 40.8243 19.9624C40.6999 20.4487 40.5755 20.9348 40.4066 21.4078C39.5408 23.8349 37.9347 25.8186 35.8991 27.5374C35.2156 28.1145 34.5335 28.694 33.8615 29.2829C33.7376 29.3917 33.6306 29.5171 33.5033 29.6663L33.5033 29.6663C33.4399 29.7406 33.3715 29.8209 33.2934 29.9079C33.4156 29.93 33.5297 29.9539 33.6384 29.9767L33.6385 29.9768C33.8629 30.0238 34.0648 30.0661 34.2685 30.0783ZM28.7718 12.4252C28.567 9.41547 27.2375 6.81054 25.249 4.45249C24.2828 3.30642 23.1732 2.28285 21.9946 1.31774L21.7774 1.13865C21.7952 1.12248 21.8128 1.10615 21.8304 1.08983C21.8479 1.07351 21.8655 1.05718 21.8833 1.04102C22.1791 1.26765 22.4784 1.49088 22.7777 1.7141L22.7777 1.71412L22.7778 1.71415C23.427 2.19834 24.0761 2.6825 24.6898 3.20132C26.9609 5.12035 28.7479 7.35964 29.9204 9.98695C30.6838 11.6983 31.1345 13.4774 31.2949 15.3162C31.3137 15.533 31.2528 15.7606 31.195 15.9766L31.1918 15.9884C30.4523 18.7376 28.763 20.8351 26.0247 22.2076C25.912 22.2637 25.7933 22.31 25.6673 22.3591C25.6064 22.3829 25.5437 22.4074 25.4791 22.4339C25.3255 21.8674 25.4068 21.3326 25.4949 20.8028C25.7106 19.5081 26.2412 18.3496 27.1917 17.3366C28.5158 15.9262 28.8947 14.2311 28.7718 12.4252ZM22.1119 36.336C22.1119 36.8527 21.9535 37.3315 21.5936 37.7525C21.8165 37.6635 22.0312 37.5664 22.2448 37.4697C22.3623 37.4166 22.4794 37.3637 22.5974 37.3123C23.1177 37.0847 23.4264 36.7147 23.5322 36.2004C23.5443 36.1412 23.5571 36.0822 23.5698 36.0232C23.5987 35.8893 23.6276 35.7555 23.649 35.6208C23.7596 34.9237 24.1017 34.346 24.7094 33.907C24.855 33.8017 25.0086 33.7058 25.1624 33.6097L25.1628 33.6095C25.2331 33.5655 25.3035 33.5216 25.3732 33.4767C24.4499 33.6614 23.6449 34.0668 22.9661 34.6682C22.4533 35.1215 22.1112 35.6538 22.1119 36.336ZM10.2724 38.1717C10.1722 37.8624 10.0721 37.5532 9.65861 37.0051C10.6426 37.2937 11.759 38.5971 12.179 39.5218C11.6095 39.7002 11.0612 39.5964 10.76 39.1654C10.4505 38.722 10.3614 38.4468 10.2724 38.1717Z" fill="current"/>
    </g>
</svg>

<svg xmlns="http://www.w3.org/2000/svg" width="1em" height="1em" fill="current" viewBox="0 0 48 48"><path fill-rule="evenodd" d="M34.269 30.078c1.238.074 2.323-.34 3.328-.942 1.26-.757 2.248-1.742 2.88-2.999.01-.02.027-.038.055-.067l.062-.068a11.8 11.8 0 0 1-1.662 4.209c-1.854 2.94-4.648 4.691-8.238 5.481-.749.165-1.469.464-2.176.757l-.135.056c-.443.183-.78.52-1.06.941 1.032.322 1.948.18 2.805-.363l.07.072q-.155.123-.306.251c-.224.188-.447.375-.698.525-1.064.637-2.28.931-3.495 1.225l-.022.005c-.845.204-1.688.418-2.517.67-.596.18-1.078.525-1.38 1.078.604.462 1.185.332 1.775-.029-.355.667-.972 1.003-1.72 1.134-.396.07-.814.068-1.22.052-.547-.02-.845.18-.91.683a2 2 0 0 0-.004.252l.002.132c.458.093.735-.136 1.018-.475-.081.595-.315 1.035-.813 1.337-.114.069-.23.136-.353.189-1.237.529-1.471 1.565-1.18 2.497.096.31.253.603.413.903q.111.205.216.416c-1.188-.371-2.229-.961-3.094-1.796-.913-.881-1.438-1.915-1.505-3.147-.06-1.087-.513-2.068-1.098-3.009l-.3-.482c-.585-.937-1.17-1.875-1.697-2.839-.646-1.183-.848-2.49-1.014-3.786l-.073-.57c-.17-1.313-.34-2.628-.374-3.944a4.22 4.22 0 0 0-.702-2.306c-1.742-2.72-2.325-5.68-1.912-8.802.053-.398.118-.795.183-1.191.11-.67.22-1.339.27-2.012.145-1.894-.403-3.631-1.648-5.17A.15.15 0 0 1 6 8.84a6.2 6.2 0 0 1 1.48 1.635c.995 1.58 1.44 3.304 1.562 5.102l.027.395c.1 1.502.201 3.004.591 4.476.228.859.524 1.695 1.034 2.456.021.032.046.063.079.105q.027.035.064.084c.526-1.113.58-2.238.527-3.378l.082-.011q.031.15.065.3c.049.226.099.452.127.68.133 1.056-.082 2.086-.313 3.112-.32 1.423-.602 2.851-.506 4.314.07 1.074.252 2.134.62 3.172l.001-.084v-.167c-.084-3.383.708-6.577 2.442-9.578 1.05-1.817 2.026-3.663 2.554-5.677.519-1.977.501-3.942-.122-5.898a.27.27 0 0 1-.005-.149c.436.748.695 1.548.864 2.374.451 2.215.176 4.398-.385 6.563-.228.88-.498 1.75-.768 2.62l-.034.11c-.06.194-.185.377-.31.548-1.165 1.603-1.98 3.328-2.225 5.254a5 5 0 0 0-.028.279.32.32 0 0 0 .043.197l.086-.239.16-.435c.505-1.315 1.326-2.465 2.188-3.604l.998-1.313c1.424-1.87 2.849-3.74 4.173-5.666 1.59-2.313 2.466-4.87 2.417-7.632-.013-.704-.09-1.407-.167-2.121a54 54 0 0 1-.102-.993c1.338 3.527.932 7.055.23 10.637 1.019-.838 1.417-1.882 1.449-3.076.246 1.016.203 1.994-.477 2.87-.875 1.126-1.744 2.253-2.364 3.52-.476.97-.862 1.962-.954 3.031a4.46 4.46 0 0 0 .344 2.154c.628-.58.78-1.3.934-2.03l.008-.036c.072.411.17.82.268 1.23.348 1.452.697 2.906-.108 4.43.656-.33 1.07-1.497 1.275-2.48l.036.185c.027.137.055.274.07.412.268 2.475-.338 4.786-1.674 6.929-.535.857-1.196 1.654-1.85 2.443l-.028.033c-.513.619-1.086 1.2-1.668 1.768-1.24 1.21-1.74 2.647-1.634 4.275.032.48.118.958.226 1.44.067-1.575.866-2.65 2.498-3.192l-.145.162c-.344.382-.694.77-.73 1.387.785-1.126 1.768-1.964 2.842-2.716a18 18 0 0 1 1.035-.654q.228-.137.455-.276c1.805-1.119 3.187-2.54 3.966-4.43.353-.857.961-1.59 1.59-2.308.418-.476.803-.977 1.188-1.478l.37-.48c.082-.104.125-.234.162-.37-.968 1.072-2.12 1.853-3.751 2.096q.032-.19.06-.368c.037-.247.072-.478.136-.703.236-.834.754-1.517 1.52-2.008 1.367-.88 2.529-1.955 3.659-3.065.921-.906 1.556-1.96 1.886-3.16a1.1 1.1 0 0 0 .047-.312c-1.232 2.1-2.983 3.598-5.704 4.168q.073-.138.127-.255c.076-.158.14-.291.23-.41.239-.313.484-.631.776-.904 1.498-1.395 2.33-3.096 2.792-4.968.078-.317.236-.565.448-.817 1.39-1.652 2.246-3.523 2.642-5.565.869-4.487-.476-8.421-3.645-11.886q-.118-.128-.24-.255a7 7 0 0 1-.561-.64q.185.147.372.291c.272.21.543.421.8.647 2.259 1.99 3.928 4.348 5.102 6.989.857 1.927 1.712 3.865 2.182 5.91.772 3.36.007 6.435-2.182 9.223q-.1.125-.196.253-.002.003 0 .023l.005.05c1.763-1.027 3.021-2.408 3.853-4.127l.109.035q-.092.333-.176.668c-.124.487-.248.973-.417 1.446-.866 2.427-2.472 4.41-4.508 6.13-.683.576-1.366 1.156-2.038 1.745-.123.109-.23.234-.358.383q-.094.112-.21.242.184.034.345.069c.225.047.427.09.63.101m-5.497-17.653c-.205-3.01-1.534-5.614-3.523-7.973-.966-1.146-2.076-2.17-3.254-3.134l-.218-.18.053-.048.053-.049q.444.34.895.673c.649.484 1.298.969 1.912 1.487 2.27 1.92 4.058 4.159 5.23 6.786a16.5 16.5 0 0 1 1.375 5.33c.019.216-.042.444-.1.66l-.003.011c-.74 2.75-2.429 4.847-5.167 6.22a4 4 0 0 1-.358.151l-.188.075c-.153-.567-.072-1.101.016-1.631.216-1.295.746-2.453 1.697-3.466 1.324-1.41 1.703-3.106 1.58-4.912m-6.66 23.911c0 .517-.159.995-.518 1.416.223-.089.437-.186.65-.282l.353-.158q.779-.34.935-1.112l.038-.177q.045-.201.079-.402a2.53 2.53 0 0 1 1.06-1.714c.146-.105.3-.201.453-.297q.107-.066.211-.133a5.1 5.1 0 0 0-2.407 1.191c-.513.453-.855.986-.854 1.668m-11.84 1.836c-.1-.31-.2-.619-.613-1.167.984.289 2.1 1.592 2.52 2.517-.57.178-1.118.074-1.419-.357a3.2 3.2 0 0 1-.488-.993" clip-rule="evenodd"/></svg>
